src/pages/elements/images/formula-wrong-mobile.svg

<svg xmlns="http://www.w3.org/2000/svg" viewBox="0 0 288 288"><g fill="none" fill-rule="evenodd"><path fill="#FFF" d="M0 0h288v288H0z"/><path d="M30.328 115V90.024h-4.704v-3.92h4.704V80.28c0-3.976 2.072-6.72 6.328-6.72h4.368v3.92h-6.216v8.624h6.216v3.92h-6.216V115h-4.48zm47.208-17.472c0-10.808 4.424-20.216 10.136-25.088h4.256c-6.216 5.6-10.192 14.896-10.192 22.736v4.816c0 7.84 4.144 17.304 10.192 22.68h-4.256c-5.544-4.704-10.136-14.224-10.136-25.144zM92.824 115l10.696-14.56-10.248-14.336h5.264l7.336 10.752h.168l7.616-10.752h4.984l-10.192 14L118.864 115H113.6l-7.504-11.312h-.168L97.808 115h-4.984zm41.328-17.472c0 10.92-4.592 20.44-10.136 25.144h-4.256c6.048-5.376 10.192-14.84 10.192-22.68v-4.816c0-7.84-3.976-17.136-10.192-22.736h4.256c5.712 4.872 10.136 14.28 10.136 25.088zm34.496-3.36h-26.096V90.36h26.096v3.808zm0 11.2h-26.096v-3.808h26.096v3.808zm4.928 9.632l10.696-14.56-10.248-14.336h5.264l7.336 10.752h.168l7.616-10.752h4.984l-10.192 14L199.616 115h-5.264l-7.504-11.312h-.168L178.56 115h-4.984zm44.632-21.224v2.8h-15.232v-3.192l7.28-5.88c2.184-1.792 3.472-3.472 3.472-5.488v-.336c0-1.904-1.288-3.192-3.64-3.192-2.576 0-3.752 1.456-4.368 3.248l-3.024-1.12c.896-2.632 3.136-5.04 7.616-5.04 4.592 0 7.168 2.52 7.168 6.104 0 3.248-2.184 5.488-5.32 7.896l-5.432 4.2h11.48zM34.36 152.488h4.256c5.264 0 7.952-2.744 7.952-6.496v-.392c0-4.088-2.856-6.16-7-6.16-4.032 0-6.44 1.904-8.064 4.872l-3.472-2.688c1.96-3.136 5.376-6.384 11.648-6.384 6.608 0 11.872 3.528 11.872 9.856 0 5.04-3.36 8.064-7.504 9.128v.224c4.2.84 8.232 3.976 8.232 9.856 0 6.72-5.32 11.368-13.272 11.368-6.776 0-10.248-3.304-12.656-6.664l3.528-2.688c2.016 3.08 4.312 5.152 9.072 5.152 5.488 0 8.4-2.632 8.4-7.224v-.448c0-4.592-2.912-7.224-8.4-7.224H34.36v-4.088zm36.344 2.016c-5.32 0-9.408-4.144-9.408-9.632 0-5.488 4.088-9.632 9.408-9.632 5.32 0 9.408 4.144 9.408 9.632 0 5.488-4.088 9.632-9.408 9.632zm0-3.584c3.36 0 5.488-2.688 5.488-6.048s-2.128-6.048-5.488-6.048c-3.36 0-5.488 2.688-5.488 6.048s2.128 6.048 5.488 6.048zm54.208-15.008v4.144h-17.136l-1.12 14.896h.392c1.848-2.632 3.92-4.312 8.008-4.312 6.72 0 11.648 4.536 11.648 12.096 0 7.616-4.928 12.936-13.16 12.936-6.496 0-9.856-3.304-12.208-6.664l3.528-2.688c2.016 3.08 3.976 5.152 8.68 5.152 5.32 0 8.176-2.968 8.176-8.12v-.56c0-5.152-2.856-8.12-8.176-8.12-3.584 0-5.376 1.512-7 3.304l-3.976-.56 1.4-21.504h20.944zm44.576 16.576h4.256c5.264 0 7.952-2.744 7.952-6.496v-.392c0-4.088-2.856-6.16-7-6.16-4.032 0-6.44 1.904-8.064 4.872l-3.472-2.688c1.96-3.136 5.376-6.384 11.648-6.384 6.608 0 11.872 3.528 11.872 9.856 0 5.04-3.36 8.064-7.504 9.128v.224c4.2.84 8.232 3.976 8.232 9.856 0 6.72-5.32 11.368-13.272 11.368-6.776 0-10.248-3.304-12.656-6.664l3.528-2.688c2.016 3.08 4.312 5.152 9.072 5.152 5.488 0 8.4-2.632 8.4-7.224v-.448c0-4.592-2.912-7.224-8.4-7.224h-4.592v-4.088zm40.04 23.184c-9.352 0-13.44-7.448-13.44-20.216s4.088-20.216 13.44-20.216 13.44 7.448 13.44 20.216-4.088 20.216-13.44 20.216zm0-4.088c6.104 0 8.512-5.376 8.512-12.936v-6.384c0-7.56-2.408-12.936-8.512-12.936-6.104 0-8.512 5.376-8.512 12.936v6.384c0 7.56 2.408 12.936 8.512 12.936zM34.36 212.488h4.256c5.264 0 7.952-2.744 7.952-6.496v-.392c0-4.088-2.856-6.16-7-6.16-4.032 0-6.44 1.904-8.064 4.872l-3.472-2.688c1.96-3.136 5.376-6.384 11.648-6.384 6.608 0 11.872 3.528 11.872 9.856 0 5.04-3.36 8.064-7.504 9.128v.224c4.2.84 8.232 3.976 8.232 9.856 0 6.72-5.32 11.368-13.272 11.368-6.776 0-10.248-3.304-12.656-6.664l3.528-2.688c2.016 3.08 4.312 5.152 9.072 5.152 5.488 0 8.4-2.632 8.4-7.224v-.448c0-4.592-2.912-7.224-8.4-7.224H34.36v-4.088zm79.632-16.576v4.144H96.856l-1.12 14.896h.392c1.848-2.632 3.92-4.312 8.008-4.312 6.72 0 11.648 4.536 11.648 12.096 0 7.616-4.928 12.936-13.16 12.936-6.496 0-9.856-3.304-12.208-6.664l3.528-2.688c2.016 3.08 3.976 5.152 8.68 5.152 5.32 0 8.176-2.968 8.176-8.12v-.56c0-5.152-2.856-8.12-8.176-8.12-3.584 0-5.376 1.512-7 3.304l-3.976-.56 1.4-21.504h20.944z" fill="#3D3D3D"/><path d="M52.28 73c2.352 0 3.416 1.344 3.416 3.304v.784c0 3.024-1.904 7.168-5.096 9.912h-3.752c2.24-2.352 3.584-4.312 4.2-6.944-1.512-.336-2.184-1.456-2.184-2.968v-.784c0-1.96 1.064-3.304 3.416-3.304zm86.24 60c2.352 0 3.416 1.344 3.416 3.304v.784c0 3.024-1.904 7.168-5.096 9.912h-3.752c2.24-2.352 3.584-4.312 4.2-6.944-1.512-.336-2.184-1.456-2.184-2.968v-.784c0-1.96 1.064-3.304 3.416-3.304zm106.96 0c2.352 0 3.416 1.344 3.416 3.304v.784c0 3.024-1.904 7.168-5.096 9.912h-3.752c2.24-2.352 3.584-4.312 4.2-6.944-1.512-.336-2.184-1.456-2.184-2.968v-.784c0-1.96 1.064-3.304 3.416-3.304zm-11.256 0c2.352 0 3.416 1.344 3.416 3.304v.784c0 3.024-1.904 7.168-5.096 9.912h-3.752c2.24-2.352 3.584-4.312 4.2-6.944-1.512-.336-2.184-1.456-2.184-2.968v-.784c0-1.96 1.064-3.304 3.416-3.304zM65.496 193c2.352 0 3.416 1.344 3.416 3.304v.784c0 3.024-1.904 7.168-5.096 9.912h-3.752c2.24-2.352 3.584-4.312 4.2-6.944-1.512-.336-2.184-1.456-2.184-2.968v-.784c0-1.96 1.064-3.304 3.416-3.304zm73.36 0c2.352 0 3.416 1.344 3.416 3.304v.784c0 3.024-1.904 7.168-5.096 9.912h-3.752c2.24-2.352 3.584-4.312 4.2-6.944-1.512-.336-2.184-1.456-2.184-2.968v-.784c0-1.96 1.064-3.304 3.416-3.304zm-11.256 0c2.352 0 3.416 1.344 3.416 3.304v.784c0 3.024-1.904 7.168-5.096 9.912h-3.752c2.24-2.352 3.584-4.312 4.2-6.944-1.512-.336-2.184-1.456-2.184-2.968v-.784c0-1.96 1.064-3.304 3.416-3.304z" fill="#D12765"/></g></svg>

<?xml version="1.0" encoding="UTF-8"?>
<svg width="288px" height="288px" viewBox="0 0 288 288" version="1.1" xmlns="http://www.w3.org/2000/svg" xmlns:xlink="http://www.w3.org/1999/xlink">
    <!-- Generator: Sketch 51.2 (57519) - http://www.bohemiancoding.com/sketch -->
    <title>Group 23</title>
    <desc>Created with Sketch.</desc>
    <defs></defs>
    <g id="Page-1" stroke="none" stroke-width="1" fill="none" fill-rule="evenodd">
        <g id="Type-Basics-Copy" transform="translate(-672.000000, -4425.000000)">
            <g id="Group-23" transform="translate(672.000000, 4425.000000)">
                <rect id="Rectangle-16-Copy-170" fill="#FFFFFF" x="0" y="0" width="288" height="288"></rect>
                <path d="M30.328,115 L30.328,90.024 L25.624,90.024 L25.624,86.104 L30.328,86.104 L30.328,80.28 C30.328,76.304 32.4,73.56 36.656,73.56 L41.024,73.56 L41.024,77.48 L34.808,77.48 L34.808,86.104 L41.024,86.104 L41.024,90.024 L34.808,90.024 L34.808,115 L30.328,115 Z M77.536,97.528 C77.536,86.72 81.96,77.312 87.672,72.44 L91.928,72.44 C85.712,78.04 81.736,87.336 81.736,95.176 L81.736,99.992 C81.736,107.832 85.88,117.296 91.928,122.672 L87.672,122.672 C82.128,117.968 77.536,108.448 77.536,97.528 Z M92.824,115 L103.52,100.44 L93.272,86.104 L98.536,86.104 L105.872,96.856 L106.04,96.856 L113.656,86.104 L118.64,86.104 L108.448,100.104 L118.864,115 L113.6,115 L106.096,103.688 L105.928,103.688 L97.808,115 L92.824,115 Z M134.152,97.528 C134.152,108.448 129.56,117.968 124.016,122.672 L119.76,122.672 C125.808,117.296 129.952,107.832 129.952,99.992 L129.952,95.176 C129.952,87.336 125.976,78.04 119.76,72.44 L124.016,72.44 C129.728,77.312 134.152,86.72 134.152,97.528 Z M168.648,94.168 L142.552,94.168 L142.552,90.36 L168.648,90.36 L168.648,94.168 Z M168.648,105.368 L142.552,105.368 L142.552,101.56 L168.648,101.56 L168.648,105.368 Z M173.576,115 L184.272,100.44 L174.024,86.104 L179.288,86.104 L186.624,96.856 L186.792,96.856 L194.408,86.104 L199.392,86.104 L189.2,100.104 L199.616,115 L194.352,115 L186.848,103.688 L186.68,103.688 L178.56,115 L173.576,115 Z M218.208,93.776 L218.208,96.576 L202.976,96.576 L202.976,93.384 L210.256,87.504 C212.44,85.712 213.728,84.032 213.728,82.016 L213.728,81.68 C213.728,79.776 212.44,78.488 210.088,78.488 C207.512,78.488 206.336,79.944 205.72,81.736 L202.696,80.616 C203.592,77.984 205.832,75.576 210.312,75.576 C214.904,75.576 217.48,78.096 217.48,81.68 C217.48,84.928 215.296,87.168 212.16,89.576 L206.728,93.776 L218.208,93.776 Z M34.36,152.488 L38.616,152.488 C43.88,152.488 46.568,149.744 46.568,145.992 L46.568,145.6 C46.568,141.512 43.712,139.44 39.568,139.44 C35.536,139.44 33.128,141.344 31.504,144.312 L28.032,141.624 C29.992,138.488 33.408,135.24 39.68,135.24 C46.288,135.24 51.552,138.768 51.552,145.096 C51.552,150.136 48.192,153.16 44.048,154.224 L44.048,154.448 C48.248,155.288 52.28,158.424 52.28,164.304 C52.28,171.024 46.96,175.672 39.008,175.672 C32.232,175.672 28.76,172.368 26.352,169.008 L29.88,166.32 C31.896,169.4 34.192,171.472 38.952,171.472 C44.44,171.472 47.352,168.84 47.352,164.248 L47.352,163.8 C47.352,159.208 44.44,156.576 38.952,156.576 L34.36,156.576 L34.36,152.488 Z M70.704,154.504 C65.384,154.504 61.296,150.36 61.296,144.872 C61.296,139.384 65.384,135.24 70.704,135.24 C76.024,135.24 80.112,139.384 80.112,144.872 C80.112,150.36 76.024,154.504 70.704,154.504 Z M70.704,150.92 C74.064,150.92 76.192,148.232 76.192,144.872 C76.192,141.512 74.064,138.824 70.704,138.824 C67.344,138.824 65.216,141.512 65.216,144.872 C65.216,148.232 67.344,150.92 70.704,150.92 Z M124.912,135.912 L124.912,140.056 L107.776,140.056 L106.656,154.952 L107.048,154.952 C108.896,152.32 110.968,150.64 115.056,150.64 C121.776,150.64 126.704,155.176 126.704,162.736 C126.704,170.352 121.776,175.672 113.544,175.672 C107.048,175.672 103.688,172.368 101.336,169.008 L104.864,166.32 C106.88,169.4 108.84,171.472 113.544,171.472 C118.864,171.472 121.72,168.504 121.72,163.352 L121.72,162.792 C121.72,157.64 118.864,154.672 113.544,154.672 C109.96,154.672 108.168,156.184 106.544,157.976 L102.568,157.416 L103.968,135.912 L124.912,135.912 Z M169.488,152.488 L173.744,152.488 C179.008,152.488 181.696,149.744 181.696,145.992 L181.696,145.6 C181.696,141.512 178.84,139.44 174.696,139.44 C170.664,139.44 168.256,141.344 166.632,144.312 L163.16,141.624 C165.12,138.488 168.536,135.24 174.808,135.24 C181.416,135.24 186.68,138.768 186.68,145.096 C186.68,150.136 183.32,153.16 179.176,154.224 L179.176,154.448 C183.376,155.288 187.408,158.424 187.408,164.304 C187.408,171.024 182.088,175.672 174.136,175.672 C167.36,175.672 163.888,172.368 161.48,169.008 L165.008,166.32 C167.024,169.4 169.32,171.472 174.08,171.472 C179.568,171.472 182.48,168.84 182.48,164.248 L182.48,163.8 C182.48,159.208 179.568,156.576 174.08,156.576 L169.488,156.576 L169.488,152.488 Z M209.528,175.672 C200.176,175.672 196.088,168.224 196.088,155.456 C196.088,142.688 200.176,135.24 209.528,135.24 C218.88,135.24 222.968,142.688 222.968,155.456 C222.968,168.224 218.88,175.672 209.528,175.672 Z M209.528,171.584 C215.632,171.584 218.04,166.208 218.04,158.648 L218.04,152.264 C218.04,144.704 215.632,139.328 209.528,139.328 C203.424,139.328 201.016,144.704 201.016,152.264 L201.016,158.648 C201.016,166.208 203.424,171.584 209.528,171.584 Z M34.36,212.488 L38.616,212.488 C43.88,212.488 46.568,209.744 46.568,205.992 L46.568,205.6 C46.568,201.512 43.712,199.44 39.568,199.44 C35.536,199.44 33.128,201.344 31.504,204.312 L28.032,201.624 C29.992,198.488 33.408,195.24 39.68,195.24 C46.288,195.24 51.552,198.768 51.552,205.096 C51.552,210.136 48.192,213.16 44.048,214.224 L44.048,214.448 C48.248,215.288 52.28,218.424 52.28,224.304 C52.28,231.024 46.96,235.672 39.008,235.672 C32.232,235.672 28.76,232.368 26.352,229.008 L29.88,226.32 C31.896,229.4 34.192,231.472 38.952,231.472 C44.44,231.472 47.352,228.84 47.352,224.248 L47.352,223.8 C47.352,219.208 44.44,216.576 38.952,216.576 L34.36,216.576 L34.36,212.488 Z M113.992,195.912 L113.992,200.056 L96.856,200.056 L95.736,214.952 L96.128,214.952 C97.976,212.32 100.048,210.64 104.136,210.64 C110.856,210.64 115.784,215.176 115.784,222.736 C115.784,230.352 110.856,235.672 102.624,235.672 C96.128,235.672 92.768,232.368 90.416,229.008 L93.944,226.32 C95.96,229.4 97.92,231.472 102.624,231.472 C107.944,231.472 110.8,228.504 110.8,223.352 L110.8,222.792 C110.8,217.64 107.944,214.672 102.624,214.672 C99.04,214.672 97.248,216.184 95.624,217.976 L91.648,217.416 L93.048,195.912 L113.992,195.912 Z" id="f’-(x)=x²-3°-5’-30”" fill="#3D3D3D"></path>
                <path d="M52.28,73 C54.632,73 55.696,74.344 55.696,76.304 L55.696,77.088 C55.696,80.112 53.792,84.256 50.6,87 L46.848,87 C49.088,84.648 50.432,82.688 51.048,80.056 C49.536,79.72 48.864,78.6 48.864,77.088 L48.864,76.304 C48.864,74.344 49.928,73 52.28,73 Z" id="Path" fill="#D12765"></path>
                <path d="M138.52,133 C140.872,133 141.936,134.344 141.936,136.304 L141.936,137.088 C141.936,140.112 140.032,144.256 136.84,147 L133.088,147 C135.328,144.648 136.672,142.688 137.288,140.056 C135.776,139.72 135.104,138.6 135.104,137.088 L135.104,136.304 C135.104,134.344 136.168,133 138.52,133 Z" id="Path" fill="#D12765"></path>
                <path d="M245.48,133 C247.832,133 248.896,134.344 248.896,136.304 L248.896,137.088 C248.896,140.112 246.992,144.256 243.8,147 L240.048,147 C242.288,144.648 243.632,142.688 244.248,140.056 C242.736,139.72 242.064,138.6 242.064,137.088 L242.064,136.304 C242.064,134.344 243.128,133 245.48,133 Z" id="Path" fill="#D12765"></path>
                <path d="M234.224,133 C236.576,133 237.64,134.344 237.64,136.304 L237.64,137.088 C237.64,140.112 235.736,144.256 232.544,147 L228.792,147 C231.032,144.648 232.376,142.688 232.992,140.056 C231.48,139.72 230.808,138.6 230.808,137.088 L230.808,136.304 C230.808,134.344 231.872,133 234.224,133 Z" id="Path" fill="#D12765"></path>
                <path d="M65.496,193 C67.848,193 68.912,194.344 68.912,196.304 L68.912,197.088 C68.912,200.112 67.008,204.256 63.816,207 L60.064,207 C62.304,204.648 63.648,202.688 64.264,200.056 C62.752,199.72 62.08,198.6 62.08,197.088 L62.08,196.304 C62.08,194.344 63.144,193 65.496,193 Z" id="Path" fill="#D12765"></path>
                <path d="M138.856,193 C141.208,193 142.272,194.344 142.272,196.304 L142.272,197.088 C142.272,200.112 140.368,204.256 137.176,207 L133.424,207 C135.664,204.648 137.008,202.688 137.624,200.056 C136.112,199.72 135.44,198.6 135.44,197.088 L135.44,196.304 C135.44,194.344 136.504,193 138.856,193 Z" id="Path" fill="#D12765"></path>
                <path d="M127.6,193 C129.952,193 131.016,194.344 131.016,196.304 L131.016,197.088 C131.016,200.112 129.112,204.256 125.92,207 L122.168,207 C124.408,204.648 125.752,202.688 126.368,200.056 C124.856,199.72 124.184,198.6 124.184,197.088 L124.184,196.304 C124.184,194.344 125.248,193 127.6,193 Z" id="Path" fill="#D12765"></path>
            </g>
        </g>
    </g>
</svg>
